svgs/obedience.svg

<svg width="192" height="192" viewBox="0 0 192 192" fill="none" xmlns="http://www.w3.org/2000/svg">
<path d="M96 102.512C136.869 102.512 170 88.9661 170 72.2561C170 55.5461 136.869 42 96 42C55.1309 42 22 55.5461 22 72.2561C22 88.9661 55.1309 102.512 96 102.512Z" stroke="black" stroke-width="12" stroke-linecap="round" stroke-linejoin="round"/>
<path d="M164.422 83.7925C153.325 72.8094 126.869 65.0804 96 65.0804C65.1306 65.0804 38.6697 72.8106 27.5743 83.7952" stroke="black" stroke-width="12" stroke-linecap="round" stroke-linejoin="round"/>
<path d="M22 77.2561V105.422C22 122.132 55.1292 135.678 96 135.678C136.871 135.678 170 122.13 170 105.422V77.2561" stroke="black" stroke-width="12" stroke-linecap="round" stroke-linejoin="round"/>
<path d="M96.7358 149.822C105.772 149.822 113.097 142.497 113.097 133.461C113.097 124.424 105.772 117.099 96.7358 117.099C87.6996 117.099 80.3742 124.424 80.3742 133.461C80.3742 142.497 87.6996 149.822 96.7358 149.822Z" stroke="black" stroke-width="12" stroke-linecap="round" stroke-linejoin="round"/>
<path d="M96.7358 119.696V114.502" stroke="black" stroke-width="12" stroke-linecap="round" stroke-linejoin="round"/>
</svg>

<svg xmlns="http://www.w3.org/2000/svg" width="192" height="192" fill="none" viewBox="0 0 192 192"><path stroke="#000" stroke-linecap="round" stroke-linejoin="round" stroke-width="12" d="M96 102.512c40.869 0 74-13.546 74-30.256S136.869 42 96 42c-40.87 0-74 13.546-74 30.256s33.13 30.256 74 30.256Z"/><path stroke="#000" stroke-linecap="round" stroke-linejoin="round" stroke-width="12" d="M164.422 83.793C153.325 72.809 126.869 65.08 96 65.08c-30.87 0-57.33 7.73-68.426 18.715"/><path stroke="#000" stroke-linecap="round" stroke-linejoin="round" stroke-width="12" d="M22 77.256v28.166c0 16.71 33.13 30.256 74 30.256 40.871 0 74-13.548 74-30.256V77.256"/><path stroke="#000" stroke-linecap="round" stroke-linejoin="round" stroke-width="12" d="M96.736 149.822c9.036 0 16.361-7.325 16.361-16.361 0-9.037-7.325-16.362-16.361-16.362-9.036 0-16.362 7.325-16.362 16.362 0 9.036 7.326 16.361 16.362 16.361Zm0-30.126v-5.194"/></svg>
